X:168
T:Mrs. Boyce's Delight
M:2/4
L:1/8
B:Thompson's Compleat Collection of 200 Favourite Country Dances, vol. 3 (London, 1773)
Z:Transcribed and edited by Flynn Titford-Mock, 2007
Z:abc's:AK/Fiddler's Companion
K:G
g2 fe | dcBA | AcBA | B2G2 | g2 fe | fbag | fed^c | d2 D2 :|
|: d2f2 | a3c | cBgB | c2 Ac | defg | cBec | BAGF | G2 G,2 :|

